X: 144
T:Missa Ad fugam / Sanctus (version I)
N: Derived from Jos1201d.a-Missa_Ad_fugam-Sanctus-version_I.krn
C: Josquin des Prez
%%abc-version 2.0
%%abcx-abcm2ps-target-version 5.9.1 (29 Sep 2008)
%%abc-creator hum2abc beta
%%abcx-conversion-date 2019/02/12 16:15:45
%%abc-edited-by Jesse Rodin
%%abc-edited-by Jesse Rodin; Victoria Chang 2012/02/04
%%abcx-initial-encoding-date 2012/02/04/
%%humdrum-veritas 4273342969
%%humdrum-veritas-data 1297120033
%%linebreak <none>
%%barnumbers 0
L: 1/4
M: 3/1
Q: 1/2=120
%%staves [1 2 3 4]
V: 1 clef=treble
V: 2 clef=treble-8
V: 3 clef=treble-8
V: 4 clef=bass
K: F
[V:1] G8G4 | 
[V:2] G6A2B3c | 
[V:3] z12 | 
[V:4] G,8E,4 | 
[V:1] A2A4GFE4 | 
[V:2] A8z2A2 | 
[V:3] c8c4 | 
[V:4] F,6G,2A,4 | 
[V:1] D4z4A4 | 
[V:2] B3AF2G2D4 | 
[V:3] d2d4cBA4 | 
[V:4] z2D,4G,4^F,2 | 
[V:1] B4A2A4G2 | 
[V:2] z2d4c2A2B2 | 
[V:3] G4z4d4 | 
[V:4] G,4D,2F,4E,2 | 
[V:1] G4z4F2G2 | 
[V:2] (3c2G2A2B8 | 
[V:3] _e4d2d4c2 | 
[V:4] C,4B,,8 | 
[V:1] A8G4 | 
[V:2] A3Bc2F2G4 | 
[V:3] c4z4B2c2 | 
[V:4] F,8E,4 | 
[V:1] F2A4GFE4 | 
[V:2] A8z2c2 | 
[V:3] d8c4 | 
[V:4] D,8A,4 | 
[V:1] D2B3AG4^F2 | 
[V:2] d2G2B3cd3B | 
[V:3] B2d4cBA4 | 
[V:4] B,4G,4D,4 | 
[V:1] G8z4 | 
[V:2] B2c2G2c2d2f2 | 
[V:3] G2_e3dc4=B2 | 
[V:4] _E,2C,2E,3F,D,4 | 
[V:1] G12 | 
[V:2] e6e2e4 | 
[V:3] c8z4 | 
[V:4] C,8C,4 | 
[V:1] A6=B2c4 | 
[V:2] f3ec2f2e2f2 | 
[V:3] c12 | 
[V:4] F,8A,4 | 
[V:1] =B4d8 | 
[V:2] g6fed4 | 
[V:3] d6e2f4 | 
[V:4] G,6B,6 | 
[V:1] G4z2=B3cd2 | 
[V:2] e8d4 | 
[V:3] e4g8 | 
[V:4] C6G,6 | 
[V:1] c2A4GFE4 | 
[V:2] z4c8 | 
[V:3] c4z2e3fg2 | 
[V:4] A,2F,4E,2C,4 | 
[V:1] D4z2G2A2c2 | 
[V:2] A6B2c2A2 | 
[V:3] f2d4cBA4 | 
[V:4] D,3E,F,2G,4^F,2 | 
[V:1] B4A8 | 
[V:2] B2d3ef3ec2- | 
[V:3] G4z2c2d2f2 | 
[V:4] G,4F,8 | 
[V:1] G2c2d2=B4A2 | 
[V:2] c2g6g4 | 
[V:3] e4d8 | 
[V:4] C,4G,8 | 
[V:1] c4z4=B4 | 
[V:2] z2c4=BA=B4 | 
[V:3] c2f2g2e4d2 | 
[V:4] A,2F,2C3B,/A,/G,4 | 
[V:1] A3=Bc2d4^c2 | 
[V:2] c2f2e2a3ga2 | 
[V:3] f4z4e4 | 
[V:4] F,3G,A,2D,2A,4 | 
[V:1] d4c2=B2A4 | 
[V:2] f4z4z4 | 
[V:3] d3ef2g4^f2 | 
[V:4] B,4A,2G,2D4 | 
[V:1] G4z2G2A2=B2 | 
[V:2] d3ef2g2z2g2 | 
[V:3] g4f2e2d4 | 
[V:4] G,4D,2E,2F,2G,2 | 
[V:1] c8=B4 | 
[V:2] e2c4A2=B4 | 
[V:3] c4z2c2d2e2 | 
[V:4] A,4F,2A,2G,4 | 
[V:1] A8G4 | 
[V:2] c2d4c6 | 
[V:3] f8e4 | 
[V:4] F,2D,3E,F,2C,4 | 
[V:1] F6D2E3F | 
[V:2] A2d3cB4A2 | 
[V:3] d8c4 | 
[V:4] D,8z4 | 
[V:1] D3EF2G4^F2 | 
[V:2] B2d4c2d4 | 
[V:3] B6G2A3B | 
[V:4] G,3F,D,2E,2D,4 | 
[V:1] G6_E2F3G | 
[V:2] B3cd2_e2d4 | 
[V:3] G3AB2c4=B2 | 
[V:4] E,2G,4C,2D,4 | 
[V:1] E3FG2A4G2 | 
[V:2] z12 | 
[V:3] c6A2B3c | 
[V:4] C,3D,E,2F,2E,4 | 
[V:1] A6F2G3A | 
[V:2] c4B2A4G2 | 
[V:3] A3Bc2d4c2 | 
[V:4] F,6D,2E,4 | 
[V:1] F3GA2B4A2 | 
[V:2] A2f4e2f4 | 
[V:3] d6B2c3d | 
[V:4] D,3E,F,2G,4F,2 | 
[V:1] B6G2A3B | 
[V:2] z2d3cB4A2 | 
[V:3] B3cd2_e4d2 | 
[V:4] G,3A,B,2_E,2F,4 | 
[V:1] G3AB2c4=B2 | 
[V:2] B4z4g4 | 
[V:3] _e6c2d3_e | 
[V:4] _E,3F,G,2A,2G,4 | 
[V:1] c6A2=B3c | 
[V:2] e2f3edc=B3A | 
[V:3] c3de2f4e2 | 
[V:4] A,6F,2G,3A, | 
[V:1] A3=Bc2d4^c2 | 
[V:2] c4z4z2A2- | 
[V:3] f6d2e3f | 
[V:4] F,3G,A,2B,2A,4 | 
[V:1] d6c=BA4 | 
[V:2] A2B4G2d4 | 
[V:3] d3ef2g4^f2 | 
[V:4] D,4z4D,4 | 
[V:1] G12- | 
[V:2] B3cd2_e4dc | 
[V:3] g12- | 
[V:4] G,3A,B,2C4B,A, | 
[V:1] G12 ||  
[V:2] d12 ||  
[V:3] g12 ||  
[V:4] G,12 ||  
[V:1]  [K:F] [K:clef=treble][M:3/1]G6FED4 | 
[V:2]  [K:F] [K:clef=treble-8][M:3/1]z12 | 
[V:3]  [K:F] [K:clef=treble-8][M:3/1]z12 | 
[V:4]  [K:F] [K:clef=bass][M:3/1]G,3A,B,2C4=B,2 | 
[V:1] E6F2G4 | 
[V:2] z12 | 
[V:3] c6BAG4 | 
[V:4] C2A,3G,F,2E,4 | 
[V:1] F2A3GF2E4 | 
[V:2] z12 | 
[V:3] A6B2c4 | 
[V:4] D,2F,3E,D,2C,D,E,F, | 
[V:1] D4z4c4 | 
[V:2] z12 | 
[V:3] B2d3cB2A4 | 
[V:4] G,2B,3A,G,2^F,3E, | 
[V:1] =B2G3ABcA4 | 
[V:2] z12 | 
[V:3] G4z4f4 | 
[V:4] G,2E,3F,G,A,F,G,A,B, | 
[V:1] G4z4F4 | 
[V:2] z12 | 
[V:3] e2c3defd4 | 
[V:4] C4C,4B,,4 | 
[V:1] E2G4FED4 | 
[V:2] z12 | 
[V:3] c4z4B4 | 
[V:4] C,2C,3D,E,F,G,4 | 
[V:1] C4z4G4 | 
[V:2] z12 | 
[V:3] A2c4BAG4 | 
[V:4] C,D,E,F,G,2C4B,2 | 
[V:1] A4A2c3Ac2 | 
[V:2] z12 | 
[V:3] F4z4c4 | 
[V:4] C2C3B,A,G,A,4 | 
[V:1] =B2d4cBA4 | 
[V:2] z12 | 
[V:3] d4d2f3df2 | 
[V:4] G,2F,E,D,8 | 
[V:1] G3A=Bcd3cA2- | 
[V:2] z12 | 
[V:3] e2g4fed4 | 
[V:4] z2G,3A,B,3A,F,2- | 
[V:1] A=Bc2B2B4AG | 
[V:2] z12 | 
[V:3] c3defg3fd2- | 
[V:4] F,G,A,2G,2G,4F,E, | 
[V:1] A4G3FG2A2 | 
[V:2] z12 | 
[V:3] def2e2e4dc | 
[V:4] D,4E,2C,4B,,A,, | 
[V:1] F4E2c3=BA2- | 
[V:2] z12 | 
[V:3] d4c3Bc2d2 | 
[V:4] B,,C,D,B,,C,4F,4 | 
[V:1] AGG2A3GA2F2 | 
[V:2] z12 | 
[V:3] B4A2f3ed2- | 
[V:4] G,4z2D,3E,F,G, | 
[V:1] E4D4z4 | 
[V:2] z12 | 
[V:3] d^c^c2d3=cd2B2 | 
[V:4] A,4D,2B,4A,G, | 
[V:1] A4B4A2G2- | 
[V:2] z12 | 
[V:3] A4G4z4 | 
[V:4] ^F,3E,G,2=F,E,F,2G,2 | 
[V:1] G2^F2G4=F2E2 | 
[V:2] z12 | 
[V:3] d4_e4d2c2- | 
[V:4] D,4z2C,2D,2E,2 | 
[V:1] D4C4z4 | 
[V:2] z12 | 
[V:3] c2=B2c4B2A2 | 
[V:4] F,2G,2C,D,E,F,G,2F,2- | 
[V:1] G4A6G2- | 
[V:2] z12 | 
[V:3] G4F4z4 | 
[V:4] F,2E,2F,2D,2F,2G,2 | 
[V:1] G4F2D2F2G2 | 
[V:2] z12 | 
[V:3] c4d6c2- | 
[V:4] E,4D,E,F,G,F,2C,2- | 
[V:1] E4D2B3AG2- | 
[V:2] z12 | 
[V:3] c4B2G2B2c2 | 
[V:4] C,D,E,F,G,6C,2 | 
[V:1] G2^F2G8 ||  
[V:2] z12 ||  
[V:3] A4G8 ||  
[V:4] D,4G,8 ||  
[V:1]  [K:F] [K:clef=treble][M:2/1]G6F2 | 
[V:2]  [K:F] [K:clef=treble-8][M:2/1]d6c2 | 
[V:3]  [K:F] [K:clef=treble-8][M:2/1]z8 | 
[V:4]  [K:F] [K:clef=bass][M:2/1]G,6A,2 | 
[V:1] G4A4 | 
[V:2] d4e2c2- | 
[V:3] z8 | 
[V:4] B,4C4 | 
[V:1] G2c4=B2 | 
[V:2] c2e2d4 | 
[V:3] z8 | 
[V:4] C,4G,4 | 
[V:1] c8 | 
[V:2] c4A4- | 
[V:3] c6B2 | 
[V:4] A,8 | 
[V:1] A4B4 | 
[V:2] A4F4 | 
[V:3] c4d4 | 
[V:4] F,4D,4 | 
[V:1] A2F2G4 | 
[V:2] c8 | 
[V:3] c2f4e2 | 
[V:4] F,4C,4 | 
[V:1] F8 | 
[V:2] c4d2f2- | 
[V:3] f8 | 
[V:4] F,8 | 
[V:1] z8 | 
[V:2] f2edc4 | 
[V:3] d4_e4 | 
[V:4] z8 | 
[V:1] z8 | 
[V:2] G2B4A2 | 
[V:3] d2B2c4 | 
[V:4] z8 | 
[V:1] D8 | 
[V:2] B8 | 
[V:3] B8 | 
[V:4] G,8 | 
[V:1] D4D4 | 
[V:2] A4B4- | 
[V:3] z8 | 
[V:4] D,4G,4- | 
[V:1] G8 | 
[V:2] B2c2d4 | 
[V:3] z8 | 
[V:4] G,8 | 
[V:1] G4G4 | 
[V:2] e4g4- | 
[V:3] G8 | 
[V:4] E,6C,2 | 
[V:1] E8 | 
[V:2] g2f2e2d2 | 
[V:3] G4G4 | 
[V:4] C,8 | 
[V:1] E4E4 | 
[V:2] e4c4- | 
[V:3] c8 | 
[V:4] C,4C,4 | 
[V:1] A8 | 
[V:2] c2A2A4- | 
[V:3] c4c4 | 
[V:4] F,8 | 
[V:1] A4A4 | 
[V:2] A2B2c4 | 
[V:3] A8 | 
[V:4] F,6D,2 | 
[V:1] F4D4 | 
[V:2] d6cB | 
[V:3] A4A4 | 
[V:4] D,8- | 
[V:1] F6G2 | 
[V:2] A8- | 
[V:3] d8 | 
[V:4] D,8- | 
[V:1] A8 | 
[V:2] A8 | 
[V:3] d4d4 | 
[V:4] D,8 | 
[V:1] D8- | 
[V:2] G4B4- | 
[V:3] B4G4 | 
[V:4] G,8 | 
[V:1] D4F4- | 
[V:2] B2c2d4- | 
[V:3] B6c2 | 
[V:4] z8 | 
[V:1] F2G2A4 | 
[V:2] d2e2f4 | 
[V:3] d8 | 
[V:4] D,4D,4 | 
[V:1] B4G4 | 
[V:2] g8- | 
[V:3] G8- | 
[V:4] D4B,4- | 
[V:1] B6c2 | 
[V:2] g8 | 
[V:3] G4B4- | 
[V:4] B,4G,4- | 
[V:1] d8 | 
[V:2] G8 | 
[V:3] B2c2d4 | 
[V:4] G,2A,2B,4 | 
[V:1] G8 | 
[V:2] z4g4- | 
[V:3] _e4c4 | 
[V:4] C8- | 
[V:1] z4G4- | 
[V:2] g2f2_e4 | 
[V:3] _e6f2 | 
[V:4] C8 | 
[V:1] G2A2=B4 | 
[V:2] d8 | 
[V:3] g8 | 
[V:4] G,8 | 
[V:1] c6=B2 | 
[V:2] z4c4 | 
[V:3] c8 | 
[V:4] A,6G,F, | 
[V:1] G4A4- | 
[V:2] B4A4 | 
[V:3] z4c4- | 
[V:4] E,4F,4 | 
[V:1] A4G4 | 
[V:2] c8- | 
[V:3] c2d2e4 | 
[V:4] C,8 | 
[V:1] A6G2 | 
[V:2] c8 | 
[V:3] f6e2 | 
[V:4] F,8- | 
[V:1] A4F4 | 
[V:2] A8 | 
[V:3] c4d4- | 
[V:4] F,4D,4 | 
[V:1] E8 | 
[V:2] z8 | 
[V:3] d4c4 | 
[V:4] A,8 | 
[V:1] D8 | 
[V:2] z8 | 
[V:3] d6c2 | 
[V:4] B,6A,G, | 
[V:1] z4G4- | 
[V:2] A4d4- | 
[V:3] d4B4 | 
[V:4] F,4G,4 | 
[V:1] G4^F4 | 
[V:2] d2c2d4 | 
[V:3] A8 | 
[V:4] D,8 | 
[V:1] G8- | 
[V:2] B4_e4- | 
[V:3] G8 | 
[V:4] _E,4C,4 | 
[V:1] G8- | 
[V:2] e2d2_e4 | 
[V:3] z4c4- | 
[V:4] _E,6F,2 | 
[V:1] G8 | 
[V:2] d8 | 
[V:3] c4=B4 | 
[V:4] G,8 | 
[V:1] E6F2 | 
[V:2] c6BA | 
[V:3] c8- | 
[V:4] C,6D,2 | 
[V:1] G4A4- | 
[V:2] G4F2f2- | 
[V:3] c8- | 
[V:4] E,4F,4 | 
[V:1] A4G4 | 
[V:2] f2e2e2d2 | 
[V:3] c8 | 
[V:4] C,8 | 
[V:1] A8- | 
[V:2] f8 | 
[V:3] A6B2 | 
[V:4] F,6G,2 | 
[V:1] A8- | 
[V:2] e4d4 | 
[V:3] c4d4- | 
[V:4] A,4D,4 | 
[V:1] A8 | 
[V:2] e8 | 
[V:3] d4^c4 | 
[V:4] A,8 | 
[V:1] F8 | 
[V:2] d6c2 | 
[V:3] d8- | 
[V:4] D,8 | 
[V:1] D4F4- | 
[V:2] B4A4 | 
[V:3] d8- | 
[V:4] G,4F,4 | 
[V:1] F2G2A4 | 
[V:2] z4d4- | 
[V:3] d8 | 
[V:4] D,8 | 
[V:1] B4G2B2- | 
[V:2] d2c2d4 | 
[V:3] B8 | 
[V:4] G,8- | 
[V:1] B2c2d4- | 
[V:2] e4d2g2- | 
[V:3] G4B4- | 
[V:4] G,8 | 
[V:1] d2cBA4 | 
[V:2] g2e2^f3e | 
[V:3] B2c2d4 | 
[V:4] z8 | 
[V:1] G6A2 | 
[V:2] g8 | 
[V:3] _e4c2_e2- | 
[V:4] C,8 | 
[V:1] B4c4- | 
[V:2] g6fe | 
[V:3] e2f2g4- | 
[V:4] G,4C,4 | 
[V:1] c4=B4 | 
[V:2] d4g4- | 
[V:3] g2f_ed4 | 
[V:4] G,8 | 
[V:1] c6=Bc | 
[V:2] g2f2e4- | 
[V:3] c6d2 | 
[V:4] C,8 | 
[V:1] =B2A2A4- | 
[V:2] e2d2c4 | 
[V:3] e4f4- | 
[V:4] z4F,4 | 
[V:1] A4G4 | 
[V:2] B8 | 
[V:3] f4e4 | 
[V:4] G,8 | 
[V:1] A4F4 | 
[V:2] A8 | 
[V:3] f6ef | 
[V:4] D,8 | 
[V:1] G4D4 | 
[V:2] z4a4 | 
[V:3] e2d2d4- | 
[V:4] E,4F,4 | 
[V:1] E8 | 
[V:2] g4e4 | 
[V:3] d4c4 | 
[V:4] G,4A,4 | 
[V:1] D4B4 | 
[V:2] f2d4e2 | 
[V:3] d4B4 | 
[V:4] D,4G,4 | 
[V:1] A4G4- | 
[V:2] f3e/d/c4 | 
[V:3] c4G4 | 
[V:4] F,4E,4 | 
[V:1] G4^F4 | 
[V:2] d8 | 
[V:3] A8 | 
[V:4] D,8 | 
[V:1] G8 ||  
[V:2] d8 ||  
[V:3] G8 ||  
[V:4] G,8 ||  
[V:1]  [K:F] [K:clef=treble][M:2/1]G8- | 
[V:2]  [K:F] [K:clef=treble-8][M:2/1]g8- | 
[V:3]  [K:F] [K:clef=treble-8][M:2/1]z8 | 
[V:4]  [K:F] [K:clef=bass][M:2/1]G,8 | 
[V:1] G8 | 
[V:2] g4e4 | 
[V:3] z8 | 
[V:4] C4E4 | 
[V:1] A8 | 
[V:2] f6ef | 
[V:3] z8 | 
[V:4] D8 | 
[V:1] G4=B4 | 
[V:2] g8 | 
[V:3] z8 | 
[V:4] G,8 | 
[V:1] c4d4- | 
[V:2] e4d4 | 
[V:3] z8 | 
[V:4] A,4B,4 | 
[V:1] d2c2=B4 | 
[V:2] g8 | 
[V:3] z8 | 
[V:4] G,8 | 
[V:1] A6=B2 | 
[V:2] f4a4- | 
[V:3] z8 | 
[V:4] D8 | 
[V:1] c2d2e4- | 
[V:2] a2f2g4- | 
[V:3] z8 | 
[V:4] z4C4- | 
[V:1] e2d2d4- | 
[V:2] g2d2f4 | 
[V:3] z8 | 
[V:4] C4D4 | 
[V:1] d2^c=Bc4 | 
[V:2] e8 | 
[V:3] z8 | 
[V:4] A,8 | 
[V:1] d8 | 
[V:2] z4d4- | 
[V:3] z8 | 
[V:4] B,6A,B, | 
[V:1] z4d4 | 
[V:2] d2c2B4 | 
[V:3] z8 | 
[V:4] A,4G,4- | 
[V:1] c6=BA | 
[V:2] A8 | 
[V:3] z8 | 
[V:4] G,4^F,4 | 
[V:1] =B4d4- | 
[V:2] G8 | 
[V:3] z8 | 
[V:4] G,8- | 
[V:1] d2c2=B4 | 
[V:2] z4g4- | 
[V:3] z8 | 
[V:4] G,4G,4 | 
[V:1] A8 | 
[V:2] g4^f4 | 
[V:3] z8 | 
[V:4] D8 | 
[V:1] =B4G4- | 
[V:2] g8 | 
[V:3] z8 | 
[V:4] G,4E,4 | 
[V:1] G4A4- | 
[V:2] d4f4- | 
[V:3] z8 | 
[V:4] G,4F,4 | 
[V:1] A2G2F4 | 
[V:2] f2e2d4- | 
[V:3] z8 | 
[V:4] D,4F,4 | 
[V:1] E8 | 
[V:2] d2^c=B^c4 | 
[V:3] z8 | 
[V:4] G,4A,4 | 
[V:1] [M:3/1]D8E4 | 
[V:2] [M:3/1]d4B4c4 | 
[V:3] [M:3/1]z12 | 
[V:4] [M:3/1]z12 | 
[V:1] F8G4 | 
[V:2] d8e4 | 
[V:3] z12 | 
[V:4] z12 | 
[V:1] A8B4- | 
[V:2] c4d8 | 
[V:3] z12 | 
[V:4] z12 | 
[V:1] B4G8 | 
[V:2] G8c4- | 
[V:3] z12 | 
[V:4] z12 | 
[V:1] c8c4 | 
[V:2] c4_e8 | 
[V:3] z12 | 
[V:4] A,12 | 
[V:1] d6c2A4 | 
[V:2] d4B4c4 | 
[V:3] z12 | 
[V:4] D,4G,4F,4 | 
[V:1] B6G2A4 | 
[V:2] d8c4 | 
[V:3] z12 | 
[V:4] D,6E,2F,4 | 
[V:1] G8^F4 | 
[V:2] B4A8 | 
[V:3] z12 | 
[V:4] G,4D,8 | 
[V:1] G12 | 
[V:2] G12- | 
[V:3] z12 | 
[V:4] D12 | 
[V:1] z12 | 
[V:2] G12 | 
[V:3] z12 | 
[V:4] z12 | 
[V:1] G8G4 | 
[V:2] G6A2B4 | 
[V:3] z12 | 
[V:4] z12 | 
[V:1] G4A8 | 
[V:2] c12 | 
[V:3] z12 | 
[V:4] z12 | 
[V:1] =B6G2A4 | 
[V:2] d6e2f4 | 
[V:3] z12 | 
[V:4] z12 | 
[V:1] =B8c4 | 
[V:2] g8a4 | 
[V:3] z12 | 
[V:4] G,8F,4 | 
[V:1] d8^c4 | 
[V:2] f4e8 | 
[V:3] z12 | 
[V:4] D,4A,8 | 
[V:1] d8=B4 | 
[V:2] d12 | 
[V:3] z12 | 
[V:4] D,8G,4 | 
[V:1] c4A8 | 
[V:2] e4f8 | 
[V:3] z12 | 
[V:4] C,4D,8 | 
[V:1] G12 | 
[V:2] g8c4- | 
[V:3] z12 | 
[V:4] G,4E,8 | 
[V:1] A8F4 | 
[V:2] c4d8 | 
[V:3] z12 | 
[V:4] F,4D,8 | 
[V:1] G4A4G4 | 
[V:2] e4f4g4 | 
[V:3] z12 | 
[V:4] C,4F,4E,4 | 
[V:1] c8=B4 | 
[V:2] e4d6c2 | 
[V:3] z12 | 
[V:4] C,4G,8 | 
[V:1] [M:2/1]c8- | 
[V:2] [M:2/1]c8 | 
[V:3] [M:2/1]z8 | 
[V:4] [M:2/1]C,4F,4- | 
[V:1] c8 | 
[V:2] z4c4 | 
[V:3] z8 | 
[V:4] F,2G,2A,4 | 
[V:1] z4A4 | 
[V:2] d4f4 | 
[V:3] z8 | 
[V:4] D,4D4 | 
[V:1] =B2d4c2 | 
[V:2] e8 | 
[V:3] z8 | 
[V:4] G,4A,4 | 
[V:1] d6c2 | 
[V:2] d8- | 
[V:3] z8 | 
[V:4] B,4G,4- | 
[V:1] =B4A4- | 
[V:2] d4c4 | 
[V:3] z8 | 
[V:4] G,4A,4 | 
[V:1] A2G2G4- | 
[V:2] d4B4 | 
[V:3] z8 | 
[V:4] F,4G,4 | 
[V:1] G4^F4 | 
[V:2] A8 | 
[V:3] z8 | 
[V:4] D,8 | 
[V:1] G8 ||  
[V:2] G8 ||  
[V:3] z8 ||  
[V:4] G,8 ||  



